src/images/single-assets/WEX.svg

<svg width="96" height="96" viewBox="0 0 96 96" fill="none" xmlns="http://www.w3.org/2000/svg">
<g clip-path="url(#clip0)">
<path d="M48.0002 96.0005C74.51 96.0005 96.0005 74.51 96.0005 48.0002C96.0005 21.4904 74.51 0 48.0002 0C21.4904 0 0 21.4904 0 48.0002C0 74.51 21.4904 96.0005 48.0002 96.0005Z" fill="#17252A"/>
<path d="M58.0621 75.7199C58.0659 75.7737 58.059 75.8277 58.0418 75.8788C58.0247 75.93 57.9977 75.9772 57.9623 76.0179C57.9269 76.0586 57.8838 76.0919 57.8356 76.1159C57.7873 76.14 57.7348 76.1543 57.681 76.158C57.6272 76.1618 57.5732 76.1549 57.5221 76.1377C57.4709 76.1206 57.4237 76.0936 57.383 76.0582C57.3423 76.0228 57.309 75.9797 57.2849 75.9315C57.2609 75.8832 57.2466 75.8307 57.2429 75.7769C57.2416 75.7579 57.2416 75.7389 57.2429 75.7199L34.9932 26.0376H42.6115C44.2108 26.0345 45.7761 26.4986 47.1154 27.3727C48.4546 28.2468 49.5094 29.493 50.1502 30.9583L57.6872 48.1206L64.1174 34.5622C64.7811 33.156 65.8297 31.9666 67.1416 31.1318C68.4535 30.2971 69.9751 29.8511 71.5301 29.8455H78.6566L58.0621 75.7199Z" fill="url(#paint0_linear)"/>
<path d="M42.2844 45.6972L40.8524 49.0557L40.4098 48.0316L40.3669 48.0744L32.536 30.9108C31.8452 29.4503 30.756 28.2146 29.3938 27.3458C28.0316 26.4771 26.4518 26.0106 24.8362 26H16.8074L39.95 75.639C39.9683 75.6914 39.9966 75.7397 40.0335 75.7811C40.0704 75.8225 40.1151 75.8562 40.1651 75.8803C40.215 75.9044 40.2692 75.9184 40.3246 75.9216C40.38 75.9247 40.4354 75.917 40.4878 75.8987C40.4997 75.8947 40.5114 75.8902 40.5229 75.885C40.5808 75.8671 40.6335 75.8353 40.6763 75.7924C40.7192 75.7496 40.7509 75.6969 40.7689 75.639L48.4271 59.2556L42.2844 45.6972Z" fill="#DEF1F3"/>
<path d="M72.343 47.7858L70.8673 47.296C69.8021 46.9271 68.6555 46.6396 67.5907 46.1893C66.1167 45.5744 65.2105 44.3862 64.641 42.9127C63.6984 40.4549 63.5364 37.6287 63.7841 35.0483H63.7412C59.9312 36.4011 57.1465 39.4711 57.1465 44.1818C57.1465 49.6304 60.546 52.4944 65.3377 54.099L67.4681 54.8347L69.2292 55.4496C71.4012 56.1874 72.4642 56.8383 72.4642 58.2776C72.4642 60.12 70.9093 60.8995 68.287 60.8995C67.1478 60.908 66.0189 60.6847 64.9688 60.243L61.8988 67.0837C64.09 67.8196 66.3864 68.1934 68.6979 68.1905C77.4247 68.1905 81.1932 63.8071 81.1932 57.7857C81.1534 53.1529 78.9416 49.9985 72.343 47.7858Z" fill="#DEF1F3"/>
<path d="M79.271 38.6935C78.3205 37.5728 77.1672 36.6414 75.8714 35.9482L72.8386 42.7478C73.3387 43.1134 73.8035 43.5249 74.2269 43.9771L79.271 38.6935Z" fill="#DEF1F3"/>
</g>
<defs>
<linearGradient id="paint0_linear" x1="34.9932" y1="51.0981" x2="78.6562" y2="51.0981" gradientUnits="userSpaceOnUse">
<stop offset="0.23" stop-color="#277F7A"/>
<stop offset="0.75" stop-color="#3BADA7"/>
</linearGradient>
<clipPath id="clip0">
<rect width="96" height="96" fill="white"/>
</clipPath>
</defs>
</svg>

<svg xmlns="http://www.w3.org/2000/svg" width="96" height="96" fill="none"><g clip-path="url(#a)"><path fill="#17252A" d="M48 96c26.51 0 48-21.49 48-48S74.51 0 48 0 0 21.49 0 48s21.49 48 48 48"/><path fill="url(#b)" d="M58.062 75.72a.41.41 0 0 1-.226.396.41.41 0 0 1-.593-.34v-.056l-22.25-49.682h7.618a8.21 8.21 0 0 1 7.54 4.92l7.536 17.163 6.43-13.559a8.23 8.23 0 0 1 7.413-4.716h7.127z"/><path fill="#DEF1F3" d="m42.284 45.697-1.432 3.359-.442-1.024-.043.042-7.831-17.163a8.58 8.58 0 0 0-7.7-4.911h-8.029L39.95 75.639a.423.423 0 0 0 .573.246.37.37 0 0 0 .246-.246l7.658-16.383zM72.343 47.786l-1.476-.49c-1.065-.369-2.212-.656-3.276-1.107-1.474-.615-2.38-1.803-2.95-3.276-.943-2.458-1.105-5.284-.857-7.865h-.043c-3.81 1.353-6.594 4.423-6.594 9.134 0 5.448 3.399 8.312 8.19 9.917l2.131.736 1.761.615c2.172.737 3.235 1.388 3.235 2.828 0 1.842-1.555 2.622-4.177 2.622a8.4 8.4 0 0 1-3.318-.657l-3.07 6.84a21.3 21.3 0 0 0 6.799 1.108c8.727 0 12.495-4.384 12.495-10.405-.04-4.633-2.251-7.788-8.85-10M79.271 38.694a11.7 11.7 0 0 0-3.4-2.746l-3.032 6.8q.752.549 1.388 1.23z"/></g><defs><linearGradient id="b" x1="34.993" x2="78.656" y1="51.098" y2="51.098" gradientUnits="userSpaceOnUse"><stop offset=".23" stop-color="#277F7A"/><stop offset=".75" stop-color="#3BADA7"/></linearGradient><clipPath id="a"><path fill="#fff" d="M0 0h96v96H0z"/></clipPath></defs></svg>
